X:1
T:Title
%%score { ( 1 3 ) | 2 }
L:1/8
M:4/4
K:Ab
V:1 treble nm="Grand Piano"
V:3 treble 
V:2 bass 
V:1
 z4 z2[Q:1/4=96] [CE][CA] | [Ec]2 [Fd][Ec] [Ec]2 [EB][A,EA] | %2
 [A,FA]2 [B,=EG][A,FA] [DFB]2 [A,FA]>[A,DF] | [A,CE]2 [A,EA]B c c2 [Ec] | cB[=DA][Dc] B2 c>d | %5
 e2 [Ec][EB] [A,EA]2 [DEG][CEA] | [DFB]2 [A,FA][A,DF] [DF]2 [CE][CE] | %7
 [DF]2 [FA][FB] [=Ec] [Ec]2- [Ec]/A/ |[M:7/8] [=DB]2 [DF] [_DG] [CA]3 |[M:1/4] c>c | %10
[M:4/4] [Ge]2 [GB][Ac] [Gd] [Gd]2 [Gd] | [Ad]2 [FA][=EB] [_Ec][Ec] c>c | e2 z2 z4 | %13
[M:9/8] [=DAB]2 [CAc] [A=d] [Ge]2- [Ge][CE][CA] |[M:4/4] [Ec]2 [Fd][Ec] [Ec]2 [EB][EA] | %15
 [FA]2 [=EG][FA] [FB]2 [FA]F | E>A .A2 AA z B | cA B2- B A3 |] %18
V:2
 z4 z2 [A,,A,][A,,A,] | [A,,A,]2 [A,,A,][A,,A,] [A,,A,]2 [B,,G,]C, | D,2 D,D, D,2 D,>D, | %3
 A,,2 C,[E,G,E] [A,E] [A,E]2 [A,,A,] | [B,,F,]2 [B,,F,][B,,A,] [E,G,E]2 [A,E]>[A,B,E] | %5
 [A,CE]2 [A,,A,][B,,G,] C,2 B,,A,, | D,2 D,D, [A,,A,]2 [A,,A,][A,,A,] | %7
 [D,A,]2 [D,A,][D,F,] [C,G,] [C,G,]2- [C,G,]/[F,C]/ |[M:7/8] [B,,F,]2 [B,,B,] [E,B,] [A,,A,]3 | %9
[M:1/4][K:treble] [A,E]>[A,A] |[M:4/4][K:bass] [E,B,]2 [E,D][E,C] [E,B,] [E,B,]2 [E,B,] | %11
 [F,A,]2 [D,A,][D,A,] [A,,A,][A,,A,] [A,E]>[A,E] | .[A,CE]2 E,E, F, F,2 F, | %13
[M:9/8] B,,2 B,, [B,,B,] [E,B,]2- [E,B,][A,,A,][A,,A,] | %14
[M:4/4] [A,,A,]2 [A,,A,][A,,A,] [A,,A,]2 [B,,G,][C,A,] | %15
 [D,A,]2 [D,B,][D,A,] [D,D]2 [D,A,][F,A,D] | [A,C]>[F,A,C] .[F,A,C]2 [=E,A,=D][E,A,D] z [E,A,D] | %17
 [E,A,E][E,CE] [E,DE]2- [E,DE] [E,CE]3 |] %18
V:3
 x8 | x8 | x8 | x8 | =D2 z2 z4 | x8 | x8 | x8 |[M:7/8] x7 |[M:1/4] x2 |[M:4/4] x8 | x8 | %12
 z A[EGc][DGB] [CA] [CFA]2 [CAc] |[M:9/8] x9 |[M:4/4] x8 | x8 | x8 | x8 |] %18

